src/assets/icons/food-frink,fancy,burger.svg

<svg width="48" height="48" viewBox="0 0 48 48" fill="none" xmlns="http://www.w3.org/2000/svg">
<path d="M9 33.1055C9 32.5532 9.44772 32.1055 10 32.1055H38C38.5523 32.1055 39 32.5532 39 33.1055C39 35.3146 37.2091 37.1055 35 37.1055H13C10.7909 37.1055 9 35.3146 9 33.1055Z" fill="black"/>
<rect opacity="0.4" x="8" y="24.1055" width="32" height="3" rx="1.5" fill="black"/>
<path opacity="0.4" d="M33.3202 29.8248L34 27.1055H26L31.8539 30.4505C32.4292 30.7793 33.1594 30.4677 33.3202 29.8248Z" fill="black"/>
<path opacity="0.8" fill-rule="evenodd" clip-rule="evenodd" d="M8.5 27.1055C7.11929 27.1055 6 28.2248 6 29.6055C6 30.9862 7.11929 32.1055 8.5 32.1055H39.5C40.8807 32.1055 42 30.9862 42 29.6055C42 28.2248 40.8807 27.1055 39.5 27.1055H34L33.3202 29.8248C33.1594 30.4677 32.4292 30.7793 31.8539 30.4505L26 27.1055H8.5Z" fill="black"/>
<rect opacity="0.8" x="9" y="19.1055" width="30" height="3" rx="1.5" fill="black"/>
<rect x="10" y="22.1055" width="28" height="2" rx="1" fill="black"/>
<path d="M16.9425 25.4771L19 24.1055H15L15.4934 25.0923C15.7624 25.6303 16.4421 25.8108 16.9425 25.4771Z" fill="black"/>
<g opacity="0.4">
<path d="M21 13.6055C21 13.8816 20.7761 14.1055 20.5 14.1055C20.2239 14.1055 20 13.8816 20 13.6055C20 13.3293 20.2239 13.1055 20.5 13.1055C20.7761 13.1055 21 13.3293 21 13.6055Z" fill="black"/>
<path d="M26 12.6055C26 12.8816 25.7761 13.1055 25.5 13.1055C25.2239 13.1055 25 12.8816 25 12.6055C25 12.3293 25.2239 12.1055 25.5 12.1055C25.7761 12.1055 26 12.3293 26 12.6055Z" fill="black"/>
<path d="M29 16.6055C29 16.8816 28.7761 17.1055 28.5 17.1055C28.2239 17.1055 28 16.8816 28 16.6055C28 16.3293 28.2239 16.1055 28.5 16.1055C28.7761 16.1055 29 16.3293 29 16.6055Z" fill="black"/>
<path d="M33 14.6055C33 14.8816 32.7761 15.1055 32.5 15.1055C32.2239 15.1055 32 14.8816 32 14.6055C32 14.3293 32.2239 14.1055 32.5 14.1055C32.7761 14.1055 33 14.3293 33 14.6055Z" fill="black"/>
<path d="M17 15.6055C17 15.8816 16.7761 16.1055 16.5 16.1055C16.2239 16.1055 16 15.8816 16 15.6055C16 15.3293 16.2239 15.1055 16.5 15.1055C16.7761 15.1055 17 15.3293 17 15.6055Z" fill="black"/>
</g>
<path fill-rule="evenodd" clip-rule="evenodd" d="M10.4702 19.1051C9.65822 19.1051 9 18.4469 9 17.6349V17.3788C9 14.6623 10.9572 12.341 13.6347 11.882C20.4949 10.706 27.5052 10.706 34.3653 11.882C37.0428 12.341 39 14.6623 39 17.3788V17.6349C39 18.4469 38.3418 19.1051 37.5298 19.1051H10.4702ZM26 12.6051C26 12.8813 25.7761 13.1051 25.5 13.1051C25.2239 13.1051 25 12.8813 25 12.6051C25 12.329 25.2239 12.1051 25.5 12.1051C25.7761 12.1051 26 12.329 26 12.6051ZM21 13.6051C21 13.8813 20.7761 14.1051 20.5 14.1051C20.2239 14.1051 20 13.8813 20 13.6051C20 13.329 20.2239 13.1051 20.5 13.1051C20.7761 13.1051 21 13.329 21 13.6051ZM28.5 17.1051C28.7761 17.1051 29 16.8813 29 16.6051C29 16.329 28.7761 16.1051 28.5 16.1051C28.2239 16.1051 28 16.329 28 16.6051C28 16.8813 28.2239 17.1051 28.5 17.1051ZM33 14.6051C33 14.8813 32.7761 15.1051 32.5 15.1051C32.2239 15.1051 32 14.8813 32 14.6051C32 14.329 32.2239 14.1051 32.5 14.1051C32.7761 14.1051 33 14.329 33 14.6051ZM16.5 16.1051C16.7761 16.1051 17 15.8813 17 15.6051C17 15.329 16.7761 15.1051 16.5 15.1051C16.2239 15.1051 16 15.329 16 15.6051C16 15.8813 16.2239 16.1051 16.5 16.1051Z" fill="black"/>
</svg>

<svg xmlns="http://www.w3.org/2000/svg" width="48" height="48" fill="none" viewBox="0 0 48 48">
  <path fill="#000" d="M9 33.105a1 1 0 011-1h28a1 1 0 011 1 4 4 0 01-4 4H13a4 4 0 01-4-4z"/>
  <rect width="32" height="3" x="8" y="24.105" fill="#000" opacity=".4" rx="1.5"/>
  <path fill="#000" d="M33.32 29.825l.68-2.72h-8l5.854 3.346a1 1 0 001.466-.626z" opacity=".4"/>
  <path fill="#000" fill-rule="evenodd" d="M8.5 27.105a2.5 2.5 0 000 5h31a2.5 2.5 0 000-5H34l-.68 2.72a1 1 0 01-1.466.626L26 27.105H8.5z" clip-rule="evenodd" opacity=".8"/>
  <rect width="30" height="3" x="9" y="19.105" fill="#000" opacity=".8" rx="1.5"/>
  <rect width="28" height="2" x="10" y="22.105" fill="#000" rx="1"/>
  <path fill="#000" d="M16.942 25.477L19 24.105h-4l.493.987a1 1 0 001.45.385z"/>
  <g opacity=".4">
    <path fill="#000" d="M21 13.605a.5.5 0 11-1 0 .5.5 0 011 0zM26 12.605a.5.5 0 11-1 0 .5.5 0 011 0zM29 16.605a.5.5 0 11-1 0 .5.5 0 011 0zM33 14.605a.5.5 0 11-1 0 .5.5 0 011 0zM17 15.605a.5.5 0 11-1 0 .5.5 0 011 0z"/>
  </g>
  <path fill="#000" fill-rule="evenodd" d="M10.47 19.105A1.47 1.47 0 019 17.635v-.256a5.577 5.577 0 014.635-5.497 61.348 61.348 0 0120.73 0A5.577 5.577 0 0139 17.379v.256a1.47 1.47 0 01-1.47 1.47H10.47zm15.53-6.5a.5.5 0 11-1 0 .5.5 0 011 0zm-5 1a.5.5 0 11-1 0 .5.5 0 011 0zm7.5 3.5a.5.5 0 100-1 .5.5 0 000 1zm4.5-2.5a.5.5 0 11-1 0 .5.5 0 011 0zm-16.5 1.5a.5.5 0 100-1 .5.5 0 000 1z" clip-rule="evenodd"/>
</svg>
